X: 28014
T: Moving Cloud, The
R: reel
M: 4/4
K: Gmajor
|:DGBG ^DGBG|DGBG AGEG|Ac3 Bdgb|aged BAGE|
DGBG ^DGBG|DGBG AGEG|ABcd efge|dcBA G4:|
|:d2 fd adfd|d2 bd adfd|e2 ge bege|e2 c'e beae|
d2 fd adfd|d2 bd adfd|c'bag bage|dBAB G4:|

